!!!!SEGMENT: 074-1-G-010.krn
!!!COM: Fryderyk Chopin
!!!OTL: Wojak
!!!OPS: op. 74
!!!PTL: Zbi贸r piew贸w polskich z towarzyszeniem fortepian
!!!PPR: Gebethner
!!!PPP: Warsaw
!!!NIFC-rismID: 300605196
!!!NIFC-shelfmark: PL-Wbfc 963/n
!!!OMD: Vivace.
!!!OMD: M. M. [quarter] = 96.
**kern	**kern	**dynam	**kern	**text	**dynam
*part2	*part2	*part2	*part1	*part1	*part1
*staff3	*staff2	*	*staff1	*	*
*I"PIANO.	*I"PIANO.	*	*I"CANTO.	*	*
*clefF4	*clefG2	*	*clefG2	*	*
*k[b-e-a-d-]	*k[b-e-a-d-]	*	*k[b-e-a-d-]	*	*
*A-:	*A-:	*	*A-:	*	*
*M6/8	*M6/8	*	*M6/8	*	*
*	*	*	*	*	*
=1	=1	=1	=1	=1	=1
!	!	!LO:DY:rj	!	!	!
2.rF	8.b-L 8.e-	f	2.rdd	.	.
.	16b-k 16e-	.	.	.	.
.	8b-J 8e-	.	.	.	.
.	8.ccL 8.a-	.	.	.	.
.	16b-k 16e-	.	.	.	.
.	8a-J 8c	.	.	.	.
=2	=2	=2	=2	=2	=2
.	8qb- 8qe-	.	.	.	.
2.rF	2.ee-^<	.	2.rdd	.	.
=3	=3	=3	=3	=3	=3
2.rF	8.b-L 8.e-	.	2.rdd	.	.
.	16b-k 16e-	.	.	.	.
.	8b-J 8e-	.	.	.	.
.	8.ccL 8.a-	.	.	.	.
.	16b-k 16e-	.	.	.	.
.	8a-J 8c	.	.	.	.
=4	=4	=4	=4	=4	=4
.	8qb- 8qe-	.	.	.	.
2.rF	2.ee-^<	.	2.rdd	.	.
=5	=5	=5	=5	=5	=5
2.rF	8.b-L 8.e-	.	2.rdd	.	.
.	16b-k 16e-	.	.	.	.
.	8b-J 8e-	.	.	.	.
.	8.ccL 8.a-	<	.	.	.
.	16b-k 16e-	.	.	.	.
.	8a-J 8c	.	.	.	.
=6	=6	=6	=6	=6	=6
2.rF	8.b-L 8.e-	.	2.rdd	.	.
.	16b-k 16e-	.	.	.	.
.	8b-J 8e-	.	.	.	.
.	8.ccL 8.a-	.	.	.	.
.	16b-k 16e-	.	.	.	.
.	8a-J 8c	.	.	.	.
=7	=7	=7	=7	=7	=7
!	!LO:TX:b:t=accell_:dur=6q:ext=ud:problem:text with line extensions	!	!	!	!
8B-L 8E-	8b-L 8g 8e- 8d-	.	2.rdd	.	.
8r	8r	.	.	.	.
8B-J 8E-	8b-J 8g 8e- 8d-	.	.	.	.
8B-L 8E-	8b-L 8g 8e- 8d-	.	.	.	.
8r	8r	.	.	.	.
8B-J 8E-	8b-J 8g 8e- 8d-	.	.	.	.
!!LO:LB:g=original
=8	=8	=8	=8	=8	=8
8E-L 8EE-	8b-L 8g 8e- 8d-	.	2.rdd	.	.
8r	8r	.	.	.	.
8E-J 8EE-	8bnJ 8g 8e- 8d-	.	.	.	.
!	!	!LO:DY:a	!	!	!
8E-L 8EE-	4cc 4g 4e- 4d-	.	.	.	.
8E- 8EE-	.	.	.	.	.
8E-J 8EE-	8b-X 8g 8e- 8d-	.	.	.	.
=9||	=9||	=9||	=9||	=9||	=9||
!!!OMD: Vivacissimo.
8AA-L	4a- 4c	ff	2.rdd	.	.
8A-	.	.	.	.	.
8E-J	8e-	.	.	.	.
8AA-L	8cL	p	.	.	.
8A-	16e-L	.	.	.	.
.	16e-J	.	.	.	.
8E-J	8e-J	.	.	.	.
=10	=10	=10	=10	=10	=10
!!!OMD: [quarter-dot] = 160.
8AA-L	8cL	.	2.rdd	.	.
8A-	8f	.	.	.	.
8E-J	8e-J	.	.	.	.
8AA-L	8cL	<	.	.	.
8A-	16e-L	.	.	.	.
.	16e-J	.	.	.	.
8E-J	8e-J	.	.	.	.
=11	=11	=11	=11	=11	=11
8AA-L	8cL	<	2.rdd	.	.
8A-	16e-L	.	.	.	.
.	16e-J	.	.	.	.
8E-J	8e-J	.	.	.	.
8AA-L	8a-L 8c	.	.	.	.
8A-	8e-	.	.	.	.
8E-J	8ccJ	[	.	.	.
=12	=12	=12	=12	=12	=12
8AA-L	8b-L 8d-	ff	2.rdd	.	.
8G	8e-	.	.	.	.
8E-J	8ee-J	.	.	.	.
8AA-L	4ee-\ 4cc\ 4e-\	.	.	.	.
8A-	.	.	.	.	.
8E-J	8e-	.	.	.	.
=13	=13	=13	=13	=13	=13
8AA-L	8cL	p	2.rdd	.	.
8A-	8f	.	.	.	.
8E-J	8e-J	.	.	.	.
8AA-L	8cL	.	.	.	.
8A-	16e-L	.	.	.	.
.	16e-J	.	.	.	.
8E-J	8e-J	.	.	.	.
=14	=14	=14	=14	=14	=14
8AA-L	8cL	.	2.rdd	.	.
8A-	8f	.	.	.	.
8E-J	8e-J	.	.	.	.
8AA-L	8cL	.	.	.	.
8A-	16e-L	.	.	.	.
.	16e-J	.	.	.	.
8E-J	8e-J	.	.	.	.
!!LO:LB:g=original
=15	=15	=15	=15	=15	=15
!LO:TX:a:t=rallentando.	!	!	!	!	!
8AA-L	8cL	.	2.rdd	.	.
8A-	16e-L	.	.	.	.
.	16e-J	.	.	.	.
8E-J	8e-J	.	.	.	.
8AA-L	8a-L 8c	.	.	.	.
8A-	8e-	.	.	.	.
8E-J	8ccJ	.	.	.	.
=16	=16	=16	=16	=16	=16
8AA-L	8b-L 8d-	>	2.rdd	.	.
8G	8e-	.	.	.	.
8E-J	8ccJ	.	.	.	.
8AA-L	8b-L 8d-	.	.	.	.
8G	8e-	.	.	.	.
8E-J	8ccJ	]	.	.	.
!LO:TX:t=	!LO:TX:a:t=	!	!LO:TX:a:t=	!	!
=17||	=17||	=17||	=17||	=17||	=17||
!!!OMD: Meno mosso. [quarter]. = 120.
*	*	*	*	*^	*
*	*	*	*	*	*^	*
8AA-L	8a-L 8c	.	4a-	R偶y	Z wia-	Tak,	.
8A-	8e-	.	.	.	.	.	.
8E-J	8ccJ	.	8a-	m贸y	-trem,	tak,	.
!	!LO:TX:b:t=cresc _ :problem:dynamics with line extensions	!	!	!	!	!	!
!	!	!LO:HP:b:t=cresc:ext=ud	!	!	!	!	!
8D-L	8a-L 8d-	<	4g	gnia-	z wia-	do-	.
8A-	8f	.	.	.	.	.	.
8FJ	8dd-J	.	8f	-dy	-trem!	-brze!	.
=18	=18	=18	=18	=18	=18	=18	=18
8BB-L	8b-L 8d-	.	4b-	zie-	niech	na	.
8B-	8f	.	.	.	.	.	.
8FJ	8dd-J	.	8b-	-mi	drz	za-	.
!	!	!	!LO:TX:a:B:t=agitato.	!	!	!	!
!LO:TX:a:t=agitato.	!	!	!	!	!	!	!
8E-L	8b-L 8e-	[	4a-	grze-	wro-	-wo-	.
8B-	8g	.	.	.	.	.	.
8GJ	8ee-J	.	8g	-bie	-gi	-dy!	.
=19	=19	=19	=19	=19	=19	=19	=19
8CL	8ccL< 8e-	.	4cc	Pu-	Krwa-	Je-	.
8c	8g	.	.	.	.	.	.
8GJ	8ee-J	.	8cc	-cie	-wy	-li	.
8FL	8ccL 8f	.	4b-	czas	sto-	po-	.
8c	8a-	.	.	.	.	.	.
8A-J	8ffJ	.	8a-\	ju偶	-czym	-ledz	.
=20	=20	=20	=20	=20	=20	=20	=20
!	!	!	!	!	!	!	!LO:DY:a
!	!	!	!	!	!	!	!LO:DY:rj
*ped	*	*	*	*	*	*	*
!	!LO:TX:t=P:nie wywietla si "sff":problem	!	!	!	!	!	!
4.d-; 4.A- 4.F-X 4.BB-	4.ff-X; 4.b- 4.a- 4.f-X	sf	4.dd-;	czas!	b贸y	mam	ff
*Xped	*	*	*	*	*	*	*
4r	4r	.	4r	.	.	.	.
8r	8r	.	8r	.	.	.	.
!!LO:PB:g=original
=21	=21	=21	=21	=21	=21	=21	=21
!	!	!	!	!	!	!	!LO:DY:a
!	!	!	!LO:TX:a:t=espressivo.	!	!	!	!
4E-	8r	p	4b-	Cie-	Ra藕-	Sam	.
.	8ee-L 8b- 8g	.	.	.	.	.	.
8r	8e-J	.	8b-	-bie	-ni,	tu,	.
4A-	8r	.	4cc	oy-	zdro-	ko-	.
.	8ccL 8a- 8g-X	.	.	.	.	.	.
8r	8e-J	.	8cc	-cze	-wi	-niu	.
=22	=22	=22	=22	=22	=22	=22	=22
4D-	8r	.	4dd-	mat-	wro-	do	.
!	!LO:TX:b:t=cresc _ :problem:dynamics with line extensions	!	!	!	!	!	!
!	!	!	!LO:HP:b:t=cresc:ext=ud	!	!	!	!
.	8dd-L 8a- 8f	<	.	.	.	.	.
8r	8d-J	.	8f	-ko	cim	za-	.
4D-	8r	.	4cc	cie-	z dro-	-gro-	.
.	8dd-L 8b- 8f-X	.	.	.	.	.	.
8r	8d-J	.	8b-	-bie	-gi	-dy	.
=23	=23	=23	=23	=23	=23	=23	=23
4E-	8r	.	(<8a-L	Sios-	Z wia-	Wol-	.
.	8ccL 8a- 8e-	.	8gJ	.	.	.	.
8r	8cJ	.	8a-	-try	-trem	-ny	.
!	!	!	!	!	!	!	!LO:DY:a
!	!	!	!	!	!	!	!LO:HP:a
4E-	8r	.	4an	偶e-	ko-	wr贸	<
.	8b-L 8g 8e-	.	.	.	.	.	[[
8r	8B-J	[[	8b-/)	-gnam	-niu	tu	.
=24	=24	=24	=24	=24	=24	=24	=24
!	!	!	!	!	!	!	!LO:HP:a
8Dn\ 8DDn\L	8r	f	2.ff	was!	m贸y!	sam.	>
8B-L 8D	8b-L 8a- 8f	.	.	.	.	.	]
8B-J 8DJ	8b-J 8a- 8f	.	.	.	.	.	.
8B-L 8DL	8b-L 8a- 8f	.	.	.	.	.	.
8B- 8D	8b- 8a- 8f	.	.	.	.	.	.
8B-J 8DJ	8b-J 8a- 8f	.	.	.	.	.	.
=25	=25	=25	=25	=25	=25	=25	=25
4E-	8r	.	4b-	Cie-	Ra藕-	Sam	[
!	!	!LO:DY:rj	!	!	!	!	!
.	8b-L 8g 8e-	p	.	.	.	.	.
8r	8d-XJ	.	8b-	-bie	-ni	tu,	.
4AA-	8r	.	4cc	oy-	zdro-	ko-	.
.	8ccL 8a- 8g-X	.	.	.	.	.	.
8r	8e-J	.	8cc	-cze	-wi	-niu	.
!!LO:LB:g=original
=26	=26	=26	=26	=26	=26	=26	=26
!LO:TX:a:t=cresc _ :problem:dynamics with line extensions	!	!	!	!	!	!	!
!	!	!LO:HP:b:t=cresc:ext=ud	!	!	!	!	!
4.D-	8r	<	4dd-	mat-	wr贸-	do	.
.	8dd-L 8a- 8f	.	.	.	.	.	.
.	8d-J	.	8f	-ko	-cim	za-	.
4.D-	8r	.	4cc	cie-	z dro-	-gro-	.
.	8dd-L 8a- 8f-X	.	.	.	.	.	.
.	8d-J	.	8b-	-bie	-gi	-dy	.
=27	=27	=27	=27	=27	=27	=27	=27
!	!	!	!LO:TX:a:t=cresc _ :problem:dynamics with line extensions	!	!	!	!
!	!	!	!	!	!	!	!LO:HP:a:t=cresc:ext=ud
4.E-	8r	.	8a-L	Sios-	Z wia-	Wol-	<
.	8ccL 8a- 8e-	.	8gJ	.	.	.	.
.	8cJ	.	8a-	-try	-trem	-ny	.
4.E-	8r	.	4cc	偶e-	ko-	wr贸	.
.	8ccL 8g 8e-	.	.	.	.	.	.
.	8d-J	[	8b-	-gnam	-niu	tu	.
=28	=28	=28	=28	=28	=28	=28	=28
!	!	!	!	!	!	!	!
!	!	!	!	!	!	!	!LO:DY:a
8E-L	8a-L 8e- 8c	f	2.ee-	was!	m贸y!	sam!	.
8E-	8a- 8e- 8c	.	.	.	.	.	[
8E-J	8a-J 8e- 8c	.	.	.	.	.	.
8E-L	8anL 8f#X 8c	.	.	.	.	.	.
8E-	8a 8f# 8c	.	.	.	.	.	.
8E-J	8aJ 8f# 8c	.	.	.	.	.	.
=29	=29	=29	=29	=29	=29	=29	=29
!	!	!	!	!	!	!	!LO:DY:a
!	!	!	!	!	!	!	!LO:DY:rj
8E-L 8EE-	8b-L 8g 8e- 8d-	ff	(4ff	偶e-	z wia-	wol-	.f
8E- 8EE-	8b- 8g 8e- 8d-	.	.	.	.	.	.
8E-J 8EE-	8b-J 8g 8e- 8d-	.	8ee-)	-gnam	-trem	-ny	.
!	!	!	!	!	!	!	!LO:HP:a
8E-L 8EE-	8b-L 8g 8e- 8d-	.	8dd-L	偶e-	ko-	wr贸	>
8E- 8EE-	8b- 8g 8e- 8d-	.	8ccJ	.	.	.	.
8E-J 8EE-	8b-J 8g 8e- 8d-	.	8b-	-gnam	-niu	tu	.]
=30	=30	=30	=30	=30	=30	=30	=30
8AA-L	4a- 4c	.	4.a-	was!	m贸y!	sam.	.
8A-	.	.	.	.	.	.	.
8E-J	8e-	.	.	.	.	.	.
8AA-L	8cL	p	4r	.	.	.	.
8A-	16e-L	.	.	.	.	.	.
.	16e-J	.	.	.	.	.	.
8E-J	8e-J	.	8r	.	.	.	.
*	*	*	*	*	*v	*v	*
*	*	*	*	*v	*v	*
!!LO:LB:g=original
=31	=31	=31	=31	=31	=31
8AA-L	8cL	.	2.rdd	.	.
8A-	8f	.	.	.	.
8E-J	8e-J	.	.	.	.
!	!LO:TX:b:t=cresc _ :problem:dynamics with line extensions	!	!	!	!
!	!	!LO:HP:b:t=cresc:ext=ud	!	!	!
8AA-L	8cL	<	.	.	.
8A-	16e-L	.	.	.	.
.	16e-J	.	.	.	.
8E-J	8e-J	.	.	.	.
=32	=32	=32	=32	=32	=32
8AA-L	8cL	.	2.rdd	.	.
8A-	16e-L	.	.	.	.
.	16e-J	.	.	.	.
8E-J	8e-J	.	.	.	.
8AA-L	8a-L 8c	.	.	.	.
8A-	8e-	.	.	.	.
8E-J	8ccJ	[[	.	.	.
=33	=33	=33	=33	=33	=33
8AA-L	8b-L 8d-	ff	2.rdd	.	.
8G	8e-	.	.	.	.
8E-J	8ee-J	.	.	.	.
8AA-L	4ee-\ 4cc\ 4e-\	.	.	.	.
8A-	.	.	.	.	.
8E-J	8e-	.	.	.	.
=34	=34	=34	=34	=34	=34
8AA-L	8cL	p	2.rdd	.	.
8A-	8f	.	.	.	.
8E-J	8e-J	.	.	.	.
8AA-L	8cL	.	.	.	.
8A-	16e-L	.	.	.	.
.	16e-J	.	.	.	.
8E-J	8e-J	.	.	.	.
=35	=35	=35	=35	=35	=35
8AA-L	8cL	.	2.rdd	.	.
8A-	8f	.	.	.	.
8E-J	8e-J	.	.	.	.
8AA-L	8cL	.	.	.	.
8A-	16e-L	.	.	.	.
.	16e-J	.	.	.	.
8E-J	8e-J	.	.	.	.
=36	=36	=36	=36	=36	=36
8AA-L	8cL	<	2.rdd	.	.
8A-	16e-L	.	.	.	.
.	16e-J	.	.	.	.
8E-J	8e-J	.	.	.	.
8AA-L	8a-L 8c	.	.	.	.
8A-	8e-	.	.	.	.
!	!LO:TX:t=rall.	!	!	!	!
!LO:TX:t=Dal Segno.	!	!	!	!	!
8E-J	8ccJ	[	.	.	.
=37	=37	=37	=37	=37	=37
8AA-L	8b-L 8d-	>	2.rdd	.	.
8G	8e-	.	.	.	.
8E-J	8ccJ	.	.	.	.
8AA-L	8b-L 8d-	.	.	.	.
8G	8e-	.	.	.	.
8E-J	8ccJ	]	.	.	.
!LO:TX:t=	!LO:TX:a:t=	!	!	!	!
!!LO:PB:g=original
==38|!	==38|!	==38|!	==38|!	==38|!	==38|!
!	!	!	!LO:TX:a:t=DERNIER COUPLET.	!	!
8AA-L	8a-L 8c	.	4a-	Sy-	.
8A-	8e-	.	.	.	.
8E-J	8ccJ	.	8a-	-sz	.
8D-L	8a-L 8d-	.	4g	je-	.
8A-	8f	.	.	.	.
8FJ	8dd-J	.	8f	-scze	.
=39	=39	=39	=39	=39	=39
!	!LO:TX:b:t=cresc _ :problem:dynamics with line extensions	!	!	!	!
!	!	!LO:HP:b:t=cresc:ext=ud	!	!	!
8BB-L	8b-L< 8d-	<	4b-	si贸str	.
8B-	8f	.	.	.	.
!	!	!	!LO:TX:a:t=agitato	!	!
8FJ	8dd-J	.	8b-	wo-	.
!	!LO:TX:b:t=e_agitato:dur=9e:ext=ud:problem:text with line extensions	!	!	!	!
8E-L	8b-L< 8e-	.	4a-	-a-	.
8B-	8g	.	.	.	.
!	!	!	!LO:TX:a:t=e	!	!
8GJ	8ee-J	.	8g	-nie,	.
=40	=40	=40	=40	=40	=40
8CL	8cc\L 8e-\	.	4cc	Zwr贸	.
!	!	!	!LO:TX:a:t=cresc _ :problem:dynamics with line extensions	!	!
!	!	!	!	!	!LO:HP:a:t=cresc:ext=ud
8c	8g	.	.	.	<
8GJ	8ee-J	.	8cc	si,	.
8FL	8ccL 8f	.	4b-	ko-	.
8c	8a-	.	.	.	.
8A-J	8ffJ	[[	8a-	-niu,	[[
=41	=41	=41	=41	=41	=41
!	!	!	!	!	!LO:DY:rj
!	!	!	!	!	!LO:DY:a
!	!LO:TX:t=P:brak mo偶liwoci wstawienia "sff":problem	!	!	!	!
!	!	!LO:DY:rj	!	!	!
*ped	*	*	*	*	*
4.d-; 4.A- 4.F-X 4.BB-	4.ff-X; 4.b- 4.a- 4.f-X	sf	4.dd-;	st贸y!	ff
*Xped	*	*	*	*	*
4r	4r	.	4r	.	.
8r	8r	.	8r	.	.
!!LO:LB:g=original
=42	=42	=42	=42	=42	=42
!	!	!LO:DY:rj	!	!	!
*ped	*	*	*	*	*
!LO:TX:t=P:"Ped." wywietla si za daleko:problem	!	!	!	!	!
4E- 4EE-	4dd- 4b- 4g 4d-	fz	(8cc	Nie	.
*Xped	*	*	*	*	*
.	.	.	8b-)	chcesz?	.
8r;	8r;	.	8r;	.	.
*ped	*	*	*	*	*
.	.	.	.	.	.
4En 4EEn	4cc 4g 4c	.	4cc	Le-	.
*Xped	*	*	*	*	*
8r	8r	.	8cc	-偶e	.
=43	=43	=43	=43	=43	=43
!	!	!	!	!	!LO:DY:a
*ped	*	*	*	*	*
8FFL<	8ccL 8an 8f	fff	4cc	Niech	ff
!	!LO:TX:t=sempre.	!	!	!	!
8An	8c	.	.	.	.
8CJ	8ccJ 8a 8f	.	8cc	si	.
8FFL<	8ccL 8a 8f	.	4cc	sta-	.
8A	8c	.	.	.	.
8CJ	8ccJ 8a 8f	.	8cc	-nie!	.
=44	=44	=44	=44	=44	=44
8FFL<	8ccL 8an 8f	.	4cc	Le	.
8An	8c	.	.	.	.
8CJ	8ccJ 8a 8f	.	8cc	na	.
8FFL<	8ccL 8a 8f	.	4cc	krwa-	.
8A	8c	.	.	.	.
8CJ	8ccJ 8a 8f	.	8cc	-wy	.
=45	=45	=45	=45	=45	=45
8FFL<	8ccL 8an 8f	.	2.ff^	b贸y!	.
8An	8c	.	.	.	.
8CJ	8ccJ 8a 8f	.	.	.	.
8FFL<	8ccL 8a 8f	.	.	.	.
8A	8c	.	.	.	.
8CJ	8ccJ 8a 8f	.	.	.	.
=46	=46	=46	=46	=46	=46
8FFL<	8ccL 8an 8f	.	4cc	Le	.
8An	8c	.	.	.	.
8CJ	8ccJ 8a 8f	.	8cc	na	.
8FFL<	8ccL 8a 8f	.	4cc	krwa-	.
8A	8c	.	.	.	.
8CJ	8ccJ 8a 8f	.	8cc	-wy	.
!!LO:LB:g=original
=47	=47	=47	=47	=47	=47
8FFL<	8ccL 8an 8f	.	[2.ff^	b贸y!_	.
8An	8c	.	.	.	.
8CJ	8ccJ 8a 8f	.	.	.	.
8FFL<	8ccL 8a 8f	.	.	.	.
8A	8c	.	.	.	.
8CJ	8ccJ 8a 8f	.	.	.	.
=48	=48	=48	=48	=48	=48
!	!	!	!LO:TX:b:t=cresc _ :problem:dynamics with line extensions	!	!
!	!	!	!	!	!LO:HP:b:t=cresc:ext=ud
8FFL<	8ccL 8a-X 8f	.	2.ff]	.	<
8A-X	8c	.	.	.	.
8CJ	8ccJ 8a- 8f	.	.	.	.
8FFL<	8ddnL 8b- 8a-	.	.	.	.
8A-	8dny	.	.	.	.
8BB-J	8ddJ 8b- 8a-	.	.	.	[
=49	=49	=49	=49	=49	=49
!	!	!	!	!	!LO:DY:rj
!LO:TX:a:t=ritenuto _:dur=6e:ext=ud:problem:text with line extensions	!	!	!	!	!LO:DY:b
8EE-L	8ee-L 8cc 8a-	.	4ff	Le	fff
8c	8e-	.	.	.	.
8E-J	8ee-J 8cc 8a-	.	8ee-	na	.
!	!	!	!LO:TX:a:t=riten _:dur=3e1q.:ext=ud:problem:text with line extensions	!	!
8EE-L	8ee-L 8dd-yX 8b- 8g	.	8ee-L	krwa-	.
8d-	8e-	.	8dd-XJ	.	.
8E-J	8ee-J 8dd- 8b- 8g	.	8b-	wy	.
=50	=50	=50	=50	=50	=50
8AA-L	4a- 4c	ff	4.a-	b贸y!	.
8A-	.	.	.	.	.
!LO:TX:a:t=e	!	!	!	!	!
8E-J	8e-	.	.	.	.
8AA-L	8cL	.	4r	.	.
!LO:TX:a:t=sempre	!	!	!	!	!
8A-	16e-L	.	.	.	.
.	16e-J	.	.	.	.
8E-J	8e-J	.	8r	.	.
=51	=51	=51	=51	=51	=51
8AA-L	8cL	.	2.rdd	.	.
!LO:TX:a:t=pi霉	!	!	!	!	!
8A-	8f	.	.	.	.
8E-J	8e-J	.	.	.	.
!LO:TX:a:t=presto	!	!	!	!	!
8AA-L	8cL	.	.	.	.
8A-	16e-L	.	.	.	.
.	16e-J	.	.	.	.
8E-J	8e-J	.	.	.	.
=52	=52	=52	=52	=52	=52
!LO:TX:a:t=che	!	!	!	!	!
8AA-L	8cL	.	2.rdd	.	.
8A-	16e-L	.	.	.	.
.	16e-J	.	.	.	.
!LO:TX:a:t=possibile	!	!	!	!	!
8E-J	8e-J	.	.	.	.
8AA-L	8a-L 8c	.	.	.	.
8A-	8e-	.	.	.	.
8E-J	8ccJ	.	.	.	.
!!LO:LB:g=original
=53	=53	=53	=53	=53	=53
!LO:TX:a:t=con fuoco.	!	!	!	!	!
8AA-L	8b-L 8d-	.	2.rdd	.	.
8G	8e-	.	.	.	.
8E-J	8ee-J	.	.	.	.
8AA-L	4ee-\ 4cc\ 4e-\	.	.	.	.
8A-	.	.	.	.	.
8E-J	8e-	.	.	.	.
=54	=54	=54	=54	=54	=54
8AA-L	8cL	.	2.rdd	.	.
8A-	8f	.	.	.	.
8E-J	8e-J	.	.	.	.
8AA-L	8cL	.	.	.	.
8A-	16e-L	.	.	.	.
.	16e-J	.	.	.	.
8E-J	8e-J	.	.	.	.
=55	=55	=55	=55	=55	=55
8AA-L	8cL	.	2.rdd	.	.
8A-	8f	.	.	.	.
8E-J	8e-J	.	.	.	.
8AA-L	8cL	.	.	.	.
!LO:TX:a:t=agitatissimo.	!	!	!	!	!
8A-	16e-L	.	.	.	.
.	16e-J	.	.	.	.
8E-J	8e-J	.	.	.	.
=56	=56	=56	=56	=56	=56
8AA-L	8cL	.	2.rdd	.	.
8A-	16e-L	.	.	.	.
.	16e-J	.	.	.	.
8E-J	8e-J	.	.	.	.
!LO:TX:a:t=sempre	!	!	!	!	!
8AA-L	8a-L 8c	.	.	.	.
8A-	8e-	.	.	.	.
8E-J	8ccJ	.	.	.	.
=57	=57	=57	=57	=57	=57
8AA-L	8b-/L 8f-X/	.	2.rdd	.	.
8G	8g	.	.	.	.
!LO:TX:a:t=pi霉	!	!	!	!	!
8F-XJ	8ff-XJ	.	.	.	.
8AA-L	4ff- 4f-	.	.	.	.
8B-	.	.	.	.	.
8F-J	8g 8d-	f	.	.	.
=58	=58	=58	=58	=58	=58
8AA-L	8a-L 8c	.	2.rdd	.	.
8A-	8e-	.	.	.	.
8E-J	8ff-XJ	.	.	.	.
8AA-L	4ff-/ 4f-X/	.	.	.	.
8B-	.	.	.	.	.
8F-XJ	8g 8d-	.	.	.	.
!!LO:LB:g=original
=59	=59	=59	=59	=59	=59
8AA-L	8a-L 8c	.	2.rdd	.	.
8A-	8e-	.	.	.	.
8E-J	8ff-XJ	.	.	.	.
8AA-L	4ff-/ 4f-X/	.	.	.	.
8B-	.	.	.	.	.
8F-XJ	8g 8d-	.	.	.	.
=60	=60	=60	=60	=60	=60
8AA-L	8a-L 8c	.	2.rdd	.	.
8A-	8e-	.	.	.	.
8E-J	8ff-XJ	.	.	.	.
8AA-L	4ff-/ 4f-X/	.	.	.	.
8B-	.	.	.	.	.
8F-XJ	8g 8d-	.	.	.	.
=61	=61	=61	=61	=61	=61
8AA-L	8a-L 8c	.	2.rdd	.	.
8A-	8e-	.	.	.	.
8E-J	8ff-XJ	.	.	.	.
8AA-L	4ff-/ 4f-X/	.	.	.	.
8B-	.	.	.	.	.
8F-XJ	8g 8d-	.	.	.	.
=62	=62	=62	=62	=62	=62
8AA-L	8a-L 8c	.	2.rdd	.	.
!LO:TX:a:t=pi霉	!	!	!	!	!
8A-	8e-	.	.	.	.
8E-J	8ccJ	.	.	.	.
8D-L	8a-L 8d-	.	.	.	.
8A-	8f-X	.	.	.	.
!LO:TX:a:t=presto	!	!	!	!	!
8F-XJ	8dd-J	.	.	.	.
=63	=63	=63	=63	=63	=63
8AA-L	8a-L 8c	.	2.rdd	.	.
8A-	8e-	.	.	.	.
8E-J	8ccJ	.	.	.	.
8D-L	8a-L 8d-	.	.	.	.
!LO:TX:a:t=ma	!	!	!	!	!
8A-	8f-X	.	.	.	.
8F-XJ	8dd-J	.	.	.	.
=64	=64	=64	=64	=64	=64
8AA-L	8a-L 8c	.	2.rdd	.	.
!	!LO:TX:b:t=decrescendo _ :problem:dynamics with line extensions	!	!	!	!
!	!	!LO:HP:b:t=decrescendo:ext=ud	!	!	!
8A-	8e-	>	.	.	.
8E-J	8ccJ	.	.	.	.
8D-L	8a-L 8d-	.	.	.	.
8A-	8f-X	.	.	.	.
8F-XJ	8dd-J	.	.	.	.
=65	=65	=65	=65	=65	=65
8AA-L	8a-L 8c	.	2.rdd	.	.
8A-	8e-	.	.	.	.
8E-J	8ccJ	.	.	.	.
8D-L	8a-L 8d-	.	.	.	.
8A-	8f-X	.	.	.	.
8F-XJ	8dd-J	]	.	.	.
=66	=66	=66	=66	=66	=66
2.AA- 2.AAA-	2.aa- 2.ee- 2.cc 2.a-	p	2.rdd	.	.
==	==	==	==	==	==
*-	*-	*-	*-	*-	*-
!!title: @{OTL}; @{OPS} @{ONM} publisher: @{PPR}
!!!ENC: Antoni Szymaski
!!!END: 2019-08-26
!!!EED: Jdrzej Mr贸z
!!!EST: revision finished 2019-10-11
!!!RDF**kern: > = above
!!!RDF**kern: < = below
!!!RDF**dynam: < = "cresc.", 'fontstyle="normal"
!!!RDF**dynam: > = "dim.", 'fontstyle="normal"
!!!system-decoration: (s1){(s2,s3)}
!!!rism-genre: Wojak
!!!rism-key: A-flat major
!!!rism-opus: op.  74, no. 10
!!!rism-title: Le guerrier in A-flat major op.  74, no. 10
!!!rism-permalink: https://opac.rism.info/search?id=300605196&View=rism
!!!rism-773a-OPR: 300605186
!!!rism-parent-permalink: https://opac.rism.info/search?id=300605186&View=rism
